X:1
T:Tamquam ad latronem - Zoilo
T:James Gibb editions
T:#
%%score [ 1 2 3 4 ]
L:1/8
Q:1/4=190
M:2/2
K:F
V:1 treble nm="Soprano" snm="S"
V:2 treble nm="Alto" snm="A"
V:3 treble-8 nm="Tenor" snm="T"
V:4 bass nm="Bass" snm="B"
V:1
"^Annibale Zoilo\n(c.1537-92)""^Tamquam ad latronem" G12 | G4 G4 | G4 A8 | G4 F4 | G8 | ^F4 d4 | %6
w: Tam-|quam ad|lat- ro-|nem ex-|i-|stis cum|
 c8 | B2 A4 B2 | A4 G4 |[M:2/2] A4 F4 | F4 E4 | F4 A8 | A4 A8 | G4 F4 | !fermata!E16 || z8 | A8 | %17
w: gla-|di- is et|fu- sti-|bus, et|fu- sti-|bus com-|pre- hen-|de- re|me:||Quo-|
 A6 A2 | A4 G4 | A4 B4 | A8 | G4 B4 | G4 ^F4 | G8 | ^F4 d4 | c4 B4 | A4 G4 | (^F4 G6 | ^FE F4) G8 | %29
w: ti- di-|e a-|pud vos|e-|ram in|tem- plo|do-|cens, et|non me|te- nu-|i\- *|* * * stis:|
 z4 G4 | G8 | A8 | z4 c6 | B2 A4 A4 | G8 | ^F4 x4 | ^F16- | F8 x8 | z8 | A12 | B4 A4 x4 | %41
w: et|ec-|ce|fla-|gel- la- tum|du-|ci-|tis|||ad|cru- ci-|
 (G6 ^FE) | ^F4 !fermata!G16 ||"^Duo" z16 | d12 x4 | d4 d4 x8 | d4 c8 x4 | A4 c8 | B4 x8 | %49
w: fi\- * *|gen- dum.||Cum-|que in-|je- cis-|sent ma-|nus|
 A4 (G6 x2 | A2 B2 A2 B2 x4 | c2 d8 | ^c4) d8 | z4 d4 x4 | d4 d4 x2 | c4 A4 x4 | (c8 x8 | B4 A4- | %58
w: in Je\-|||* sum,|et|te- n-|is- sent|e\-||
 A2 G2 F2 E2) | D8 | z4 G4 | A4 B4 x2 | (c4 d8 | c2 B2 cded x4 | edcB A2 G2 | A4) G16 || z8 x12 | %67
w: |um,|di-|xit ad|e\- *|||* os:||
 A8 x4 | A6 A2 x12 | A4 G4 | A4 B4 | A8 | G4 B4 | G4 ^F4 | G8 | ^F4 d4 | c4 B4 | A4 G4 | (^F4 G6 | %79
w: Quo-|ti- di-|e a-|pud vos|e-|ram in|tem- plo|do-|cens, et|non me|te- nu-|i\- *|
 ^FE F4) G8 | z4 G4 | G8 | A8 | z4 c6 | B2 A4 A4 | G8 | ^F4 x4 | ^F16- | F8 | z8 x8 | %90
w: * * * stis:|et|ec-|ce|fla-|gel- la- tum|du-|ci-|tis|||
[Q:1/4=183] A12 |[Q:1/4=176] B4[Q:1/4=172] A4 |[Q:1/4=167] (G6[Q:1/4=164] ^F[Q:1/4=163]E) x4 | %93
w: ad|cru- ci-|fi\- * *|
[Q:1/4=161] ^F4[Q:1/4=160] !fermata!G16 |] x12 | x16 | x8 | x8 | x8 | x16 |] %100
w: gen- dum.|||||||
V:2
 D12 | D4 D4 | D4 F8 | _E4 D4 | (B,4 C4) | D4 F4 | F4 F4 | F4 F4 | E6 D2 |[M:2/2] C4 D4 | C4 B,4 | %11
w: Tam-|quam ad|lat- ro-|nem ex-|i\- *|stis cum|gla- di-|is, cum|gla- di-|is et|fu- sti-|
 C4 F8 | F4 F8 | (E2 C4) =B,2 | !fermata!C16 || z8 | F8 | F6 F2 | F4 E4 | F4 F4 | F8 | E4 F4 | %22
w: bus com-|pre- hen-|de\- * re|me:||Quo-|ti- di-|e a-|pud vos|e-|ram in|
 _E4 D4 | B,4 C4 | D4 D4 | F4 F4 | F4 (D4- | D2 CB, C4) x2 | D8 x6 | D8 | z4 D4 | E8 | F8 x2 | %33
w: tem- plo|do- cens,|et non|me te-|nu- i\-||i-|stis:|et|ec-|ce|
 z4 F4 x2 | E4 F4- | F4 C4 | (D6 CB, x8 | A,4 A,4 x8 | A,8- | A,8 x4 | z8 x4 | z4 C4 | %42
w: fla-|gel- la\-|* tum|du\- * *|* ci-|tis|||ad|
 A,4 F4- x12 || F4 D4 x8 | D8 x8 | !fermata!D16 | G12 x4 | G4 G4 x4 | G4 F8 | D4 F8 | E4 F8 | %51
w: cru- ci\-|* fi-|gen-|dum.|Cum-|que in-|je- cis-|sent ma\-|* nus|
 E4 D4- x2 | D2 C2 B,2 A,2 x4 | G,4 G4- x4 | G2 F2 E2 D2 x2 | E8) x4 | D16 | z4 F4 | F4 F4 | %59
w: in Je\-|||||sum,|et|te- n-|
 E4 C4 | (D8 | C4 D6 | C2 B,2 A,2) x6 | G,8 x4 | z4 D4 | E4 F4 x12 || (G4 A4- x12 | A2 G2 G8 | %68
w: is- sent|e\-|||um,|di-|xit ad|e\- *||
 ^F4) G16 | z8 | F8 | F6 F2 | F4 E4 | F4 F4 | F8 | E4 F4 | _E4 D4 | B,4 C4 | D4 D4 x2 | F4 F4 x6 | %80
w: * os:||Quo-|ti- di-|e a-|pud vos|e-|ram in|tem- plo|do- cens,|et non|me te-|
 F4 (D4- | D2 CB, C4) | D8 | D8 x2 | z4 D4 x2 | E8 | F8 | z4 F4 x8 | E4 F4- | F4 C4 x8 | %90
w: nu- i\-||i-|stis:|et|ec-|ce|fla-|gel- la\-|* tum|
 D6 CB, x4 | A,4 A,4 | A,8- x4 | A,8 x12 |] z8 x4 | z4 C4 x8 | A,4 F4- | F4 D4 | D8 | %99
w: du\- * *|* ci-|tis|||ad|cru- ci\-|* fi-|gen-|
 !fermata!D16 |] %100
w: dum.|
V:3
 =B12 | =B4 B4 | =B4 c8 | c4 A4 | G8 | A4 B4 | A6 G2 | F4 d4 | c6 B2 |[M:2/2][K:treble-8] A4 B4 | %10
w: Tam-|quam ad|lat- ro-|nem ex-|i-|stis cum|gla- di-|is, cum|gla- di-|is et|
 A4 G4 | A4 c8 | c4 c8 | c4 F4 | !fermata!G16 || z8 | d8 | c6 c2 | c4 c4 | c4 d4 | c8 | c4 d4 | %22
w: fu- sti-|bus com-|pre- hen-|de- re|me:||Quo-|ti- di-|e a-|pud vos|e-|ram in|
 c4 A4 | G8 | A8 | z4 d4 | c4 B4 | A4 G4 x2 | A8 x6 | G4 =B4 | =B8 | c8 | z4 c4- x2 | c2 B2 A4 x2 | %34
w: tem- plo|do-|cens,|et|non me|te- nu-|i-|stis: et|ec-|ce|fla\-|* gel- la-|
 G4 d4- | d4 G4 | A4 d4- x8 | d4 d4 x8 | d8- | d8 x4 | c8- x4 | c4 A4 | c4 d4 x12 || (c4 B4 x8 | %44
w: tum du\-|* ci-|tis, du\-|* ci-|tis||ad|* cru-|ci- fi-|gen\- *|
 A8) x8 | !fermata!=B16 |[M:2/2] z16 | z12 | z8 x4 | z12 | z12 | z4 x6 |[M:2/2] z12 | z8 x4 | z10 | %55
w: |dum.||||||||||
 z12 | z8 x8 |[M:2/2] z8 | z8 | z8 | z8 | z8 x2 | z8 x4 |[M:2/2] z8 x4 | z8 | z12 x8 || z8 x12 | %67
w: ||||||||||||
 z8 x4 | z20 |[M:2/2][K:treble-8] z8 | d8 | c6 c2 | c4 c4 | c4 d4 | c8 | c4 d4 | c4 A4 | G8 | %78
w: |||Quo-|ti- di-|e a-|pud vos|e-|ram in|tem- plo|do-|
 A8 x2 | z4 d4 x6 | c4 B4 | A4 G4 | A8 | G4 =B4 x2 | =B8 x2 | c8 | z4 c4- | c2 B2 A4 x8 | G4 d4- | %89
w: cens,|et|non me|te- nu-|i-|stis: et|ec-|ce|fla\-|* gel- la-|tum du\-|
 d4 G4 x8 | A4 d4- x4 | d4 d4 | d8- x4 | d8 x12 |] c8- x4 | c4 A4 x8 | c4 d4 | (c4 B4 | A8) | %99
w: * ci-|tis, du\-|* ci-|tis||ad|* cru-|ci- fi-|gen\- *||
 !fermata!=B16 |] %100
w: dum.|
V:4
 G,12 | G,4 G,4 | G,4 F,8 | C,4 D,4 | _E,8 | D,4 B,,4 | F,6 E,2 | D,8 | z8 |[M:2/2] z4 B,,4 | %10
w: Tam-|quam ad|lat- ro-|nem ex-|i-|stis cum|gla- di-|is||et|
 F,4 G,4 | F,4 F,8 | F,4 F,8 | C,4 D,4 | C,16 || z8 | D,8 | F,6 F,2 | F,4 C,4 | F,4 B,,4 | F,8 | %21
w: fu- sti-|bus com-|pre- hen-|de- re|me:||Quo-|ti- di-|e a-|pud vos|e-|
 C,4 B,,4 | C,4 D,4 | _E,8 | D,8 | z4 D,4 | F,4 G,4 | D,4 _E,4 x2 | D,8 x6 | G,,4 G,4 | G,8 | C,8 | %32
w: ram in|tem- plo|do-|cens,|et|non me|te- nu-|i-|stis: et|ec-|ce|
 z4 F,4 x2 | E,4 F,4 x2 | C,4 D,4- | D,4 E,4 | D,8- x8 | D,16 | D,8 | z8 x4 | F,12 | D,4 F,4 | %42
w: fla-|gel- la-|tum du\-|* ci-|tis||||ad|cru- ci-|
 G,4 D,8 x8 || !fermata!G,,16 |[M:2/2] z16 | z12 x4 | z8 x8 | z12 | z12 | z4 x8 |[M:2/2] z12 | %51
w: fi- gen-|dum.||||||||
 z8 x2 | z12 | z12 | z8 x2 |[M:2/2] z8 x4 | z8 x8 | z8 | z8 | z8 | z8 |[M:2/2] z8 x2 | z8 x4 | %63
w: ||||||||||||
 z12 | z8 | z8 x12 || z20 |[M:2/2] z8 x4 | D,8 x12 | F,6 F,2 | F,4 C,4 | F,4 B,,4 | F,8 | %73
w: |||||Quo-|ti- di-|e a-|pud vos|e-|
 C,4 B,,4 | C,4 D,4 | _E,8 | D,8 | z4 D,4 | F,4 G,4 x2 | D,4 _E,4 x6 | D,8 | G,,4 G,4 | G,8 | %83
w: ram in|tem- plo|do-|cens,|et|non me|te- nu-|i-|stis: et|ec-|
 C,8 x2 | z4 F,4 x2 | E,4 F,4 | C,4 D,4- | D,4 E,4 x8 | D,8- | D,16 | D,8 x4 | z8 | F,12 | %93
w: ce|fla-|gel- la-|tum du\-|* ci-|tis||||ad|
 D,4 F,4 x12 |] G,4 D,8 | !fermata!G,,16 | x8 | x8 | x8 | x16 |] %100
w: cru- ci-|fi- gen-|dum.|||||

